icons/shield40_us_ok_2.svg

<svg width="20" height="20" version="1.0" xmlns="http://www.w3.org/2000/svg">
 <rect style="fill:#fff;fill-rule:evenodd;stroke:#000" width="19" height="19" x=".5" y=".5" rx="1.5" ry="1.5"/>
 <path style="fill:none;stroke-width:.0520836" d="m 178.9297,481.11321 c 0,-0.69037 0.55963,-1.25001 1.25001,-1.25001 h 17.49998 c 0.69038,0 1.25001,0.55964 1.25001,1.25001 v 17.49999 c 0,0.69037 -0.55963,1.25001 -1.25001,1.25001 h -17.49998 c -0.69038,0 -1.25001,-0.55964 -1.25001,-1.25001 z" transform="translate(-178.93 -479.863)"/>
 <path style="color:#000;clip-rule:evenodd;fill:#000;fill-rule:evenodd;stroke-width:.05208;stroke-miterlimit:3.86369;-inkscape-stroke:none" d="M 1.2070312 2.375 L 1.2070312 4.2089844 L 1.4140625 4.2089844 L 7.3730469 4.2089844 L 7.3730469 7 L 7.7890625 7 L 7.7890625 3.7910156 L 1.6230469 3.7910156 L 1.6230469 2.7910156 L 17.371094 2.7910156 L 17.371094 3.6953125 L 18.289062 6.9453125 L 18.289062 11.121094 L 17.087891 10.697266 L 16.076172 10.974609 L 16 11.025391 L 16 11.525391 L 16.25 11.357422 L 17.072266 11.134766 L 18.705078 11.710938 L 18.705078 6.8867188 L 17.789062 3.6367188 L 17.789062 2.375 L 1.2070312 2.375 z"/>
</svg>

<svg width="20" height="20" version="1.0" xmlns="http://www.w3.org/2000/svg">
 <rect style="fill:#fff;fill-rule:evenodd;stroke:#000" width="19" height="19" x=".5" y=".5" rx="1.5" ry="1.5"/>
 <path style="fill:none;stroke-width:.0520836" d="M178.93 481.113c0-.69.56-1.25 1.25-1.25h17.5c.69 0 1.25.56 1.25 1.25v17.5c0 .69-.56 1.25-1.25 1.25h-17.5c-.69 0-1.25-.56-1.25-1.25z" transform="translate(-178.93 -479.863)"/>
 <path style="color:#000;clip-rule:evenodd;fill:#000;fill-rule:evenodd;stroke-width:.05208;stroke-miterlimit:3.86369;-inkscape-stroke:none" d="M1.207 2.375v1.834H7.373V7h.416V3.791H1.623v-1h15.748v.904l.918 3.25v4.176l-1.201-.424-1.012.278-.076.05v.5l.25-.168.822-.222 1.633.576V6.887l-.916-3.25V2.375H1.207z"/>
</svg>
